X:1
T:Will the Weaver
M:2/2
L:1/4
K:C
 c c c2| e e d c| c c c A| G E D C| C E G G| A A G- E| A A B G| A B c2|\


